ix/bag-tick-2_bulk.svg

<svg viewBox="0 0 24 24" fill="none" xmlns="http://www.w3.org/2000/svg" height="1em" width="1em">
  <path opacity="0.4" d="M16.1894 8.8599C15.7994 8.8599 15.4894 8.5499 15.4894 8.1599V6.8799C15.4894 5.8999 15.0694 4.9599 14.3494 4.2999C13.6094 3.6299 12.6594 3.3199 11.6594 3.4099C9.97937 3.5699 8.50938 5.2799 8.50938 7.0599V7.9599C8.50938 8.3499 8.19937 8.6599 7.80937 8.6599C7.41937 8.6599 7.10938 8.3499 7.10938 7.9599V7.0599C7.10938 4.5599 9.12938 2.2499 11.5194 2.0199C12.9094 1.8899 14.2494 2.3299 15.2794 3.2699C16.2994 4.1899 16.8794 5.5099 16.8794 6.8799V8.1599C16.8794 8.5499 16.5694 8.8599 16.1894 8.8599Z" fill="#292D32"/>
  <path d="M19.9597 8.96008C19.1197 8.03008 17.7397 7.58008 15.7197 7.58008H8.27975C6.25975 7.58008 4.87975 8.03008 4.03975 8.96008C3.06975 10.0401 3.09975 11.4801 3.20975 12.4801L3.90975 18.0501C4.11975 20.0001 4.90975 22.0001 9.20975 22.0001H14.7897C19.0897 22.0001 19.8797 20.0001 20.0897 18.0601L20.7897 12.4701C20.8997 11.4801 20.9297 10.0401 19.9597 8.96008ZM11.9997 18.5801C9.90975 18.5801 8.20975 16.8801 8.20975 14.7901C8.20975 12.7001 9.90975 11.0001 11.9997 11.0001C14.0897 11.0001 15.7897 12.7001 15.7897 14.7901C15.7897 16.8801 14.0897 18.5801 11.9997 18.5801Z" fill="#292D32"/>
  <path opacity="0.4" d="M12.0009 18.58C14.0941 18.58 15.7909 16.8832 15.7909 14.79C15.7909 12.6968 14.0941 11 12.0009 11C9.90778 11 8.21094 12.6968 8.21094 14.79C8.21094 16.8832 9.90778 18.58 12.0009 18.58Z" fill="#292D32"/>
  <path d="M11.4309 16.64C11.2409 16.64 11.0509 16.57 10.9009 16.42L9.91086 15.43C9.62086 15.14 9.62086 14.66 9.91086 14.37C10.2009 14.08 10.6809 14.08 10.9709 14.37L11.4509 14.85L13.0509 13.37C13.3509 13.09 13.8309 13.11 14.1109 13.41C14.3909 13.71 14.3709 14.19 14.0709 14.47L11.9409 16.44C11.7909 16.57 11.6109 16.64 11.4309 16.64Z" fill="#292D32"/>
</svg>

<svg viewBox="0 0 24 24" fill="none" xmlns="http://www.w3.org/2000/svg" height="1em" width="1em">
  <path opacity=".4" d="M16.19 8.86c-.39 0-.7-.31-.7-.7V6.88a3.482 3.482 0 0 0-3.83-3.47c-1.68.16-3.15 1.87-3.15 3.65v.9c0 .39-.31.7-.7.7-.39 0-.7-.31-.7-.7v-.9c0-2.5 2.02-4.81 4.41-5.04 1.39-.13 2.73.31 3.76 1.25 1.02.92 1.6 2.24 1.6 3.61v1.28c0 .39-.31.7-.69.7Z" fill="#292D32"/>
  <path d="M19.96 8.96c-.84-.93-2.22-1.38-4.24-1.38H8.28c-2.02 0-3.4.45-4.24 1.38-.97 1.08-.94 2.52-.83 3.52l.7 5.57C4.12 20 4.91 22 9.21 22h5.58c4.3 0 5.09-2 5.3-3.94l.7-5.59c.11-.99.14-2.43-.83-3.51ZM12 18.58c-2.09 0-3.79-1.7-3.79-3.79S9.91 11 12 11s3.79 1.7 3.79 3.79-1.7 3.79-3.79 3.79Z" fill="#292D32"/>
  <path opacity=".4" d="M12 18.58a3.79 3.79 0 1 0 .001-7.58 3.79 3.79 0 0 0 0 7.58Z" fill="#292D32"/>
  <path d="M11.43 16.64c-.19 0-.38-.07-.53-.22l-.99-.99a.754.754 0 0 1 0-1.06c.29-.29.77-.29 1.06 0l.48.48 1.6-1.48c.3-.28.78-.26 1.06.04s.26.78-.04 1.06l-2.13 1.97c-.15.13-.33.2-.51.2Z" fill="#292D32"/>
</svg>
